X:1
T:6 Lieder, Op.1
T:Denkst du an mich?
T:6 Lieder, Op.1
T:6. Denkst du an mich?
T:Peter Cornelius
T:Peter Cornelius
T:OpenScore (CC0)
T:OpenScore (CC0)
T:OpenScore (CC0)
C:Peter Cornelius
Z:Peter Cornelius
Z:OpenScore (CC0)
%%score ( 1 2 ) { ( 3 6 ) | ( 4 5 ) }
L:1/8
Q:1/4=130
M:3/4
K:A
V:1 treble nm="Voice"
V:2 treble 
V:3 treble nm="Piano"
V:6 treble 
V:4 bass 
V:5 bass 
V:1
!p!"^Ziemlich schnell" E | B ^A B3 B | c ^B c3!<(! c!<)! | d3 c B A | A2 G2 z!p! E | B ^A B3 B | %6
w: 1. Ein|grü- nes Spinn- chen|gau- kel- te mir|um die Schlä- fe|luf- tig, und|wieg- te sich und|
w: 2. Ich|hör- te ei- nen|Ton so fein mir|in den Oh- ren|klin- gen, als|tät ein El- fen-|
w: 3. O,|spinn' den Fa- den|nur recht lang, du|Glücks- spinn', um die|Schlä- fe, ach,|wenn doch stets so|
 =c3/2 B/ c3!<(! c |[Q:1/4=110]"^etwas langsamer" d3!<)! =c[Q:1/4=100] _B A | A2 =G2 z2 | %9
w: schau- kel- te sich|an dem Fäd- chen|duf- tig:|
w: knab' im Hain der|Ros' ein Ständ- chen|brin- gen:|
w: süs- ser  Klang ins|ban- ge Herz mir|trä- fe:|
!mf![Q:1/4=130] ^G6 |"^cresc." B4 E2 |!<(! c6 | c6!<)! |!f!!>(! c6!>)! |"^dim." c4 B2 |!mp! A4 z2 | %16
w: Denkst|du an|mich?|O'|denkst|du an|mich?|
w: Denkst|du an|mich?|O,|denkst|du an|mich?|
w: O,|denk' an|mich!|O,|denk'|an _|mich!|
 z6 | z6 | z6 | z4 z |] %20
w: ||||
w: ||||
w: ||||
V:2
 x | x6 | x6 | x6 | x6 | x6 | x6 | x6 | x6 | x6 | x6 | x6 | x6 | x6 | c4 B2 | x6 | x6 | x6 | x6 | %19
 x5 |] %20
V:3
 z | z2 z (E{/^d} e2) | z2 z (E{/^d} e2) | z2 z (E{/^d} e2) | z2 z (E{/^d} e2) | z2 z (E{/^d} e2) | %6
 z2 z (E{/^d} e2) |!<(! z2!<)! z2{/^d} e2 | z2 z (E{/^d} e2) | z2{/^d} e4 | z2{/^d} e4 | %11
 z2{/^d} e4 | z2{/^d} e4 | z2!>(! z2{/[^d^d']} [ee']2!>)! | %14
!mf! z2{/[^d^d']} (.[ee']2{/[dd']} .[ee']2) | z2!p! z2"^leicht und bewegt"{/^d} e2 | z2 z e3- | %17
 e3 !>!e3- | e3 z{/^d} e2 |{/^g} [Aa]4 z |] %20
V:4
 z |"^leicht"!ped! (E,,^^F,G,) z z (G,!ped-up! |!ped!A,,G,A,) z z (A,!ped-up! | %3
!ped! B,,^A,B,=A,G,F,)!ped-up! |!ped! (F,^D,E,B,,G,,F,,)!ped-up! | %5
!ped! (E,,^^F,G,) z z (G,!ped-up! |!ped! A,,G,A,) z z!ped-up! A, | %7
"^etwas langsamer"!ped!(=C,,A,_B,A,=G,=F,) | (=F,^D,E,=G,=C=C,)!ped-up! | %9
"^bewegt"!ped! B,,!mp![E,B,E]!mp![E,B,E][E,B,E][E,B,E][E,B,E] | %10
!mf! G,,!mp![G,B,E]!mp![G,B,E][G,B,E]!ped-up!!ped! [G,^B,E][G,B,E]!ped-up! | %11
"^cresc."!mf!!ped! A,,!mp![E,A,C]!mp![E,A,C][E,A,C] =G,,[E,A,C]!ped-up! | %12
!ped! F,,[F,^A,E][F,A,E][F,A,E]!ped-up!!ped! ^^F,,[^^F,A,E]!ped-up! | %13
!ped! G,,!mf![G,CE]!mf![G,CE][G,CE][G,CE][G,CE]!ped-up! | %14
"^abnehmend"!ped! E,,[E,G,D][E,G,D][E,G,D][E,G,D][E,G,D]!ped-up! | %15
!ped! A,,[E,A,C][E,A,C][E,A,C][E,A,C][E,A,C]!ped-up! |!ped! (E,,^D,E,E=DC) | %17
 (B,^A,B,DCB,)!ped-up! |!ped! (DC)(CA,E,C,) | !arpeggio![A,,E,C]4!ped-up! z |] %20
V:5
 x | x6 | x6 | x6 | x6 | x6 | x6 | x6 | x6 | B,,4 x2 | G,,4 x2 | A,,4 =G,,2 | F,,4 ^^F,,2 | %13
 G,,4 x2 | E,,4 x2 | A,,4 x2 | x6 | x6 | x6 | x5 |] %20
V:6
 x | x6 | x6 | x6 | x6 | x6 | x6 | x6 | x6 | x6 | x6 | x6 | x6 | x6 | x6 | x4 z A | (G^^FGcBA) | %17
 (G^^FGB=AG) | (BA) A4- | x5 |] %20

